X: 27141
T: Miss McGuinness
R: reel
M: 4/4
K: Adorian
eaab a2ge|dega g2ed|eaab a2ge|dBGA BAA2|
eaab a2ge|dega g3a|bgaf gfed|BGEF GABG||
A2eA A2eA|A2eA dBGB|A2eA A2BG|EFGA BABG|
A2eA A2eA|A2eA dBGB|A2eA A2BG|EFGA BAA2||

